X:452
T:Caledonian Hunt. RH.453
R:strathspey
S:Rev.R.Harrison’s MS,c1815,Cumbria
O:England
A:Temple Sowerby,Cumbria
Z:vmp.Simon Wilson. Review PJH, 2008.
M:C|
L:1/8
Q:1/2=70
K:D
A|F<AdA B<dAF|G<BAF BEEG|\
FAdA BdAF|G<BAG FDDG|!
FAdA B<dAF|GBAF BEE>G|\
FAdA B/c/d AG|FAGD fdd||!
f|(d/e/f/g/) a<f b<ga<f|(d/e/f/g/) af geef|\
(d/e/f/g/) af bgaf|Aa (a/b/a/g/) f>dd>f|!
(d/e/f/g/) af bgaf|d/e/f/g/ af geeg|\
fdef dBAF|ABde fdd|]

